X:1
T:On with the Cross
T:On with the Cross
T:Edmund Simon Lorenz
T:Lizzie DeArmond, 1907
T:Public Domain Courtesy of the Cyber Hymnal™
T:Public Domain Courtesy of the Cyber Hymnal™
T:Public Domain Courtesy of the Cyber Hymnal™
C:Edmund Simon Lorenz
Z:Public Domain
Z:Courtesy of the Cyber Hymnal™
%%score ( 1 2 ) ( 3 4 )
L:1/8
Q:1/4=88
M:6/8
K:G
V:1 treble 
V:2 treble 
V:3 bass 
V:4 bass 
V:1
 BAG (FA)[DG] | [C-G]3 [CF]2 z | cBA ([^E^G][FA])D x2 | [DB]3- [DB]2 z | dcB (^AB)[=Fd] x2 | %5
w: 1.~On thro’ the East- * er|sun- Wav-|ing His ban- ner * high,|Sing- *|ing with joy- ful * voic-|
w: 2.~Haste while the skies * are|glow- Tell|of the Light of * men,|Ris- *|en with life e- * ter-|
w: 3.~On with the cross * of|Je- Bright-|er than star or * sun,|Wav- *|ing His stand- ard * o’er|
 [Ed]3 [Ec]2 z | [DB][DA][DG] [FA]2 [CDF] | [B,DG]3- [B,DG]2 z | [FA][^E^G][FB] [FA]2 [Ad] | %9
w: es, “Je-|sus can ne- ver die.”|Bound *|in his chains for- ev-|
w: nal, Un-|to His own a- gain;|Burst- *|ing the bonds of sad-|
w: us, Prais-|ing the ris- en One;|Fol- *|low His hal- lowed foot-|
 [Gd]3 [G^c]2 z | [Ge][G^c][GB] [Gc]2 [GB] | [FA]3- [FA]2 z | [FA][^E^G][FB] [FA]2 [Ad] | %13
w: er Now|lies our con- quered foe;|On *|with a note of tri-|
w: ness, Set-|ting the cap- tive free,|Bring- *|ing to earth new glad-|
w: steps, Safe|is the path He trod,|Lead- *|ing from earth’s dark por-|
 [Bd]3 [GB]2 z | [FA][A^c][GB] [FA]2 [Ge] | [Fd]3- [Fd]2 z || %16
w: umph, God’s|might- y pow’r to show.||
w: ness, Life’s|bless- èd ju- bi- lee.|On *|
w: tals Up|to the throne of God.||
[M:12/8]"^Refrain" B4 ([B,D][B,D] z) A[B,DG] F4 ([B,D][B,D] z) G[B,DE] x | %17
w: |
w: with the * cross, it is shin- * ing clear|
w: |
 F2 [CD] [CDA] [CDFA]2 [DGB] c3- ([DF][DF] [DFc]2) z | c4 ([DF][DF] c)B[DFA] | %19
w: ||
w: and bright, On till the lands a- * *|* far * * see His|
w: ||
 G4 ([DE][DE] [DE])[DFA]D | G2 ([B,DG] [DGB]) [DGB]2 [DAc] d3- ([DGB][DGB] [DGBd]2) z | %21
w: ||
w: bless- èd * * light; Shout!|let the * song of tri- * * *|
w: ||
 [Gce][Gce][Gce] [Gce]2 [Gce] d3 ([DG][DG]) G3 | %22
w: |
w: umph O’er the wide world now ring; * Hail|
w: |
 [EAc][EAc][EAc] [EAc]2 [EAc] B3- ([=DF][DF] [DFB]2 [DA]) | %23
w: |
w: to the ris- en Sav- ior! Christ, * * *|
w: |
 [B,EG][B,^DF][B,EG] ([CFA][B,EG])[=DFA] [GB]2 [=FGd] [EGd]2 [EAc] | [DGB]3 [CFA]3 G4 [B,D]6 |] %25
w: ||
w: * our might- y * king. * * * *||
w: ||
V:2
 B,3- B,2 x | x6 | F3 x D x3 | x6 | G3- G2 x3 | x6 | x6 | x6 | x6 | x6 | x6 | x6 | x6 | x6 | x6 | %15
 x6 ||[M:12/8] ([B,D] [B,D]2) ([B,D] [B,D]2) x13 | [B,C] x3 [DF] x10 | ([DF] [DF]2) x6 | %19
 ([DE] D) x7 | ([B,D] x3 [DGB]) x10 | x6 ([DG] D2 D) x4 | x6 [^DF] x7 | x4 =D3 x5 | x6 [B,D]3 x7 |] %25
V:3
 [G,,D,]3- [G,,D,]2 [B,,G,] | [A,,D,]3- [A,,D,]2 z | EDC F, x4 | ([G,,G,]B,,D, G,2) z | %4
 B,ED B, x4 | [C,G,-]3 [A,,G,]2 z | G,CB, C2 A, | G,3- [G,,G,]2 z | D,,3 D,2 F, | E,3 A,,2 z | %10
 A,3 A,,3 | (D,F,A, D2) z | D,,3 D,2 F, | G,3 G,,2 z | A,,3 A,3 | D,3- [D,,D,]2 z || %16
[M:12/8] G,G,G, G,2 x14 | (D,D,)D, D,2 D, (D,D,D, D,2) x4 | (D,D,D, D,2) D, x3 | %19
 (D,D,D,) D,2 D, x3 | (D,[D,G,][D,G,] [D,G,]2) [D,G,] [D,G,] ([D,G,][D,G,] [G,,D,G,]2) z x3 | %21
 [C,C]6 [B,,B,]6 x2 | [A,,A,]6 [B,,B,]6 x2 | %23
 [E,,E,]3 [D,,D,]3 [G,,G,]2 [B,,,B,,] [C,,C,]2 [A,,,A,,] | %24
 ([D,,D,]D,D,) ([D,,D,]D,D,) ([G,,G,]D,B,,) [G,,,G,,]6 x |] %25
V:4
 x6 | x6 | D,6 (B,C) | x6 | G,6 (^CD) | x6 | D,3 D,,3 | G,D,B,, x3 | x6 | x6 | x6 | x6 | x6 | x6 | %14
 x6 | D,A,,F,, x3 ||[M:12/8] G,,12 G, (G,G,G, G,2) G, | A,,3 D,,3 A,,3- (A,,F,,E,,) x3 | D,,6- x3 | %19
 D,,3 D,,3 x3 | G,,6- x9 | x14 | x14 | x12 | x16 |] %25

